!!!COM: Palestrina, Giovanni Perluigi da
!!!OPR: Missa Panem nostrum
!!!OMD: Benedictus
!!!OTL: Hosanna
**kern	**kern	**kern	**kern	**kern
*Ibass	*Ibarit	*Itenor	*Icalto	*Icant
!Bassus	!Baritone	!Tenor	!Altus	!Cantus
*clefF4	*clefF4	*clefGv2	*clefG2	*clefG2
*k[b-]	*k[b-]	*k[b-]	*k[b-]	*k[b-]
*G:dor	*G:dor	*G:dor	*G:dor	*G:dor
*M3/2	*M3/2	*M3/2	*M3/2	*M3/2
=39	=39	=39	=39	=39
1r	1.F	2f	2a	2cc
.	.	2f	2a	2cc
2r	.	2f	2a	2cc
=40	=40	=40	=40	=40
1r	1.G	2d	2g	2b-
.	.	2B-	2d	2g
2r	.	2d	2g	2b-
=41	=41	=41	=41	=41
1r	1.A	2.c	2.e	2.a
.	.	4d	4d	4b-
2r	.	2e	4c	2cc
.	.	.	4B-	.
=42	=42	=42	=42	=42
2F	1.A	2f	1c	2a
2F	.	2f	.	2a
2F	.	2c	2r	2a
=43	=43	=43	=43	=43
2E-	1.G	2.e-	2g	2b-
2C	.	.	2g	2cc
.	.	4d	.	.
2E-	.	4B-	2g	2g
.	.	4c	.	.
=44	=44	=44	=44	=44
2D	1.B-	4d	2f	2dd
.	.	4e	.	.
2.BB-	.	2.f	2.d	2dd
.	.	.	.	2ff
4C	.	4e	4e	.
=45	=45	=45	=45	=45
1D	1.A	1d	4f	2.f
.	.	.	4g	.
.	.	.	4a	.
.	.	.	4g	4g
2F	.	2c	2f	4a
.	.	.	.	4b-
=46	=46	=46	=46	=46
2.C	1.G	1g	2.e	2.cc
4BB	.	.	4d	4dd
2C	.	2g	2e	2cc
=47	=47	=47	=47	=47
1.F	1.F	2c	1f	1a
.	.	2c	.	.
.	.	2c	2a	2r
=48	=48	=48	=48	=48
2E-	1.G	2B-	2g	1r
2E-	.	2B-	4G	.
.	.	.	4A	.
2E-	.	2G	4B-	2r
.	.	.	4c	.
=49	=49	=49	=49	=49
2D	1.F	2A	2.d	2ff
2BB-	.	2B-	.	2ff
.	.	.	4e	.
2D	.	2A	4f	2ff
.	.	.	4d	.
=50	=50	=50	=50	=50
2C	1.G	2c	1e	2ee
2C	.	2c	.	2cc
2G	.	2B-	2g	[2dd
=51	=51	=51	=51	=51
2.D	1A	2.d	2.f	4dd]
.	.	.	.	8cc
.	.	.	.	8b-
.	.	.	.	1a
4C	.	4e	4e	.
2D	2A	2f#	[2d	.
=52	=52	=52	=52	=52
1.G	1.G	2g	4d]	2.b-
.	.	.	4c	.
.	.	2g	4B-	.
.	.	.	4A	4cc
.	.	2g	2B-	2dd
=53	=53	=53	=53	=53
1.C	1.G	2g	2c	2ee-
.	.	2e-	1g	2ee-
.	.	2c	.	2ee-
=54	=54	=54	=54	=54
1r	1.G	1d	2b-	2dd
.	.	.	2b-	2b-
2r	.	2B-	2b-	[2dd
=55	=55	=55	=55	=55
2D	1.F	2f	2a	4dd]
.	.	.	.	4ee
2D	.	2f	2f	2ff
2D	.	2f	2a	2dd
=56	=56	=56	=56	=56
1C	1.G	2e-	1cc	1ee-
.	.	2c	.	.
2G	.	2d	2b-	2dd
=57	=57	=57	=57	=57
2.D	1A	2.f	1a	2.dd
4C	.	4e	.	4ee
2D	2A	2d	2a	2ff#
=58	=58	=58	=58	=58
2G	1.G	2B	1d	2gg
2r	.	2B	.	2dd
2G	.	2B	2g	2dd
=59	=59	=59	=59	=59
2C	[1.G	1c	2.g	1ee-
2C	.	.	.	.
.	.	.	4g	.
2C	.	2e-	2g	2cc
=60	=60	=60	=60	=60
2G	1.G]	2d	2g	2b
1C	.	1e-	1g	1cc
=61	=61	=61	=61	=61
1.G	1.G	1.d	1.g	1.b
==	==	==	==	==
*-	*-	*-	*-	*-
!!!CDT: 1525/^1526/-1594/2/2
!!!OCY: Italia
!!!AGN: Mass (Tenor)
!!!AST: renaissance, vocal
!!!ASW: Prayer
!!!PWK: Masses, Book 10
!!!RNB: Cadence finals: C
!!!YOR: Le Opere Complete, v. 27, p. 226
!!!YOO: Rome, Italy: Fratelli Scalera
!!!END: 1992//
!!!EED: John Miller
!!!YEC: Copyright 2000, John Miller
!!!YEN: United States of America
!!!YEM: Rights to all derivative electronic formats reserved.
!!!YEM: Refer to licensing agreement for further details.
!!!YEM: This file must be accompanied by the licensing agreement.
!!!YEM: A copy of the licensing agreement may be found at http://www.music-cog.ohio-state.edu/HumdrumDatabases/Palestrina/license.txt
!!!EMD: converted to Humdrum by Bret Aarden
